X: 32789
T: Poor But Happy At 53
R: reel
M: 4/4
K: Dmixolydian
D3 B AGAB|dGBG AGEG|DEGB AGAB|cA~A2 BG~G2:|
d2 de d4|dBde gedB|cABG AGEG|1 (3Bcd ed BAGe:|2 (3Bcd ed BAGE||

